!!!!SEGMENT: ss054-ChineseMusic_M.krn
!!!COM: J.S.ZAMECNIK
!!!OTL: CHINESE　MUSIC
!!!OPR:Sam Fox Moving Picture Music, Volume1
!!!YOY:1913
!!!ONB: National
**kern	**dynam
*>[A,B,B1,B,B2,C,C1,C,C2,D,D1,D,D2]	*>[A,B,B1,B,B2,C,C1,C,C2,D,D1,D,D2]
*>A	*>A
*clefG2	*
*k[]	*
*a:	*
*M2/4	*
=1	=1
!LO:TX:a:B:t=Allegro moderato	!
(8qddd#X/	f
4eee^)	.
(8qddd#/	.
4eee^)	.
=2	=2
(24aaLL	.
24bb	.
24aaJ	.
8ffJ)	.
4ff^	.
=3	=3
(8qddd#X/	.
4eee^)	.
(8qddd#/	.
4eee^)	.
=4	=4
(24aaLL	.
24bb	.
24aaJ	.
8ffJ)	.
4ff^	.
=5	=5
8eeL	.
8eeJ	.
8r	.
(8qdd#X/	.
8ee)	.
=6	=6
8r	>
(8qdd#X/	.
8ee)	.
8r	.
(8qdd#/	]
8ee)	.
*>B	*>B
=7!|:	=7!|:
16eeeLL	mf
16eee	.
16eee	.
16eeeJJ	.
8eeeL	.
8dddJ	.
=8	=8
(24cccLL	.
24ddd	.
24cccJ	.
8aaJ)	.
4aa^	.
=9	=9
16eeeLL	.
16eee	.
16eee	.
16eeeJJ	.
8eeeL	.
8dddJ	.
=10	=10
(24cccLL	.
24ddd	.
24cccJ	.
8aaJ)	.
4aa^	.
=11	=11
(8gL	.
8aJ	.
8ccL	.
8aJ)	.
=12	=12
(8gL	.
8aJ	.
8ccL	.
8ddJ)	.
=13	=13
*>B1	*>B1
(8eeL	.
8ggJ	.
8aaL	.
8eeJ)	.
=14	=14
2dd	.
=15:|!	=15:|!
*>B2	*>B2
(8eeL	.
8ggJ)	.
(24ddLL	.
24ee	.
24ddJ	.
8ccJ)	.
=16	=16
4cc	.
8eL	.
8fJ	.
*>C	*>C
=17!|:	=17!|:
4g	f
4g	.
=18	=18
(24aLL	.
24b	.
24aJ	.
8ccJ)	.
(24aLL	.
24b	.
24aJ	.
8ccJ)	.
=19	=19
8gL	.
8eJ	.
8dL	.
8cJ	.
=20	=20
2A	.
=21	=21
(8GL	mf
8AJ	.
8cL	.
8AJ)	.
=22	=22
(8GL	.
8AJ	.
8cL	.
8eJ)	.
=23	=23
(16dLL	.
16e	.
16d	.
16cJJ	.
8AL	.
8cJ)	.
=24	=24
*>C1	*>C1
4d	f
8eL	.
8fJ	.
=25:|!	=25:|!
*>C2	*>C2
4.c	.
8r	.
=26!|:	=26!|:
*>D	*>D
4gg	f
4aa	.
=27	=27
8ggL	.
8ggJ	.
4aa	.
=28	=28
16ggLL	.
16ee	.
16gg	.
16eeJJ	.
8aaL	.
8aaJ	.
=29	=29
8ggL	.
8ggJ	.
4aa	.
=30	=30
8cccL	.
8aaJ	.
8ggL	.
8aaJ	.
=31	=31
8ggL	.
8eeJ	.
4dd	.
=32	=32
(16ccLL	.
16dd	.
16cc	.
16ddJJ	.
8ccL)	.
8aJ	.
=33	=33
*>D1	*>D1
8gL	.
8aJ	.
8ccL	.
8eeJ	.
=34:|!	=34:|!
*>D2	*>D2
8gL	.
8aJ	.
8cc	.
8r	.
!LO:TX:b:rj:Bi:t=D.C.	!
=||	=||
*-	*-
!!!ENC: Yukiko Yoden
!!!END: 2022/03/21